X:983
T:Fanny Power
R:Waltz
O:Ireland
C:Turlough Carolan
B:O'Neill's 673
B:The Complete Works of O'Carolan
S:My arrangement from various sources
Z:Transcription, arrangement, chords:Mike Long
M:6/8
L:1/8
K:G
G|\
"G"G2D GAB|"C"c2B "(Am)"A2G|"D"F2E DED|"D"F2G "C"A2c|\
"G"BAG Bcd|"Am"e2A A2G|
"D"FED DEF|"G"G3 G2:|\
|:B|\
"G"dB/c/d dB/c/d|GAG GBd|"Am"ec/d/e ec/d/e|
"D"ABA ABc|\
"G"Bcd "C"efg|"D"fga d2c|"G"BAG "D"A<cF|"G"G3 G2:|
